X:1
T:Gott der Vater
T:Arnold von Bruck
T:Source : DDT 34---Leipzig---Breitkopf & Härtel---J.Wolf---1908. First print : Newe Deudsche Geistliche Gesenge---Wittemberg---G.Rhau---1544. Editor : André Vierendeels : (30/08/17).
T:Notes : Original clefs : G2, C2, C3, F3 Original note values have been halved Editorial accidentals above the staff
T:Gott der Vater
T:©
T:©
T:©
T:©
C:Arnold von Bruck
Z:©
%%score [ 1 2 3 4 ]
L:1/8
Q:1/4=120
M:2/2
K:F
V:1 treble nm="Soprano" snm="S"
V:2 treble nm="Alto" snm="A"
V:3 treble-8 nm="Tenor" snm="T"
V:4 bass nm="Bass" snm="B"
V:1
 c4 c4 | d4 e4 | f4 f4 | e8 | z4 g4 | c4 d4 | e4 z2 c2 | f4 c4 | A2 f2 e2 c2- | cB A2 AG G2- | %10
w: Gott der|Va- ter|wohn uns|bei,|wohn|uns _|bei, und|lasz uns|nicht ver- der- *||
w: Mach uns|al- ler|Sün- den-|frei,|Sün-|* den|frei, und|hilf uns|se- * lig ster-||
 G2 F4 E2 | F8 :: A4 G4 | F4 E4 | F2 A2 G4 | F2 f2 e2 f2 | g6 f2 | e3 d c2 d2- | dc c4 B2 | %19
w: |ben.|Vor dem|Teu- fel|uns _ be-|wahr, halt uns bei|fe- stem|Glau- * * *||
w: |ben.||||||||
 c4 z2 F2 | c4 f4 | e4 c3 d | e2 c4 BA | B2 A4 G2 | A2 A2 A4 | A4 c4- | c2 B2 A2 G2- | GF F2 B4 | %28
w: ben, und|auf dich|lasz uns _|_ bau- * *||en, aus Her-|zen Grund|_ ver- trau- *||
w: |||||||||
 A4 z4 | A4 G4 | E4 A4 | A4 G4 | E2 c2 c4 | c4 d4- | d2 c2 B2 d2- |"^-natural" dc c4 B2 | %36
w: en,|dir uns|las- sen|ganz und|gar, mit al-|len rech-|* * ten Chri-||
w: ||||||||
 c4 z2 F2 | c4 f4 | e4 c3 d | e2 c4 BA | B2 A4 G2 | A2 A2 A4 | A4 c4- | c2 B2 A2 G2- | GF F4 E2 | %45
w: sten, ent-|flie- hen|Teu- fels _|_ Li- * *||sten, mit Waf-|fen Gotts|_ uns fri- *||
w: |||||||||
 F4 z4 | A4 B4 | c4 c4 | A4 B4 | c2 A2 c3 B | A2 G2 A4- | A2 G2 F2 G2- | GF F4 E2 | F8 :| %54
w: sten.|A- men,|a- men,|das sei|wahr, so sin- *|* gen wir|_ Hal- le- lu-||ia.|
w: |||||||||
V:2
 z8 | z8 | F4 F4 | G4 A4 | B4 B4 | A4 z2 D2 | G6 A2 | B2 F3 G A2 | z2 A2 cBAG | AG c2 F2 G2 | %10
w: ||Gott der|Va- ter|wohn uns|bei, und|lasz _|uns nicht _ _|ver- der- * * *||
w: ||Mach uns|al- er|Sün- den|frei, und|hilf _|_ uns _ _|se- * * * *|* * * * lig|
 C2 B,2 C4- | C2 B,A, A,4 :: z2 D4 C2 | D4 C3 B, | A,2 D4 C2 | D4 A4 | G2 c3 A B2 | c6 BA | %18
w: |* * * ben.|Vor dem|Teu- fel _|_ uns be-|wahr, halt|uns bei _ _|fe- * *|
w: ster _ _|_ _ _ ben.|||||||
 G2 F2 G4 | E4 z4 | z2 G2 A2 F2 | G4 A4 | z2 G3 E F2 | G2 FE D2 E2 | F2 D2 C4- | C4 z2 F2 | %26
w: * stem Glau-|ben,|und _ _|auf dich|lasz _ _|uns _ _ _ bau-|* * en,|_ aus|
w: ||||||||
 F2 G2 F2 D2 | E2 F4 E2 | F4 z4 | F4 D4 | C4 C4 | F4 D4 | C2 E2 F2 A2 | G2 A2 B4- | B2 A2 G2 D2 | %35
w: Her- zen Grund ver|trau- * *|en,|dir uns|las- sen|ganz und|gar, mit al- len|rech- * *||
w: |||||||||
 E2 F2 G4 | E4 z4 | z2 G2 A2 F2 | G4 A4 | z2 G3 E F2 | G2 FE D2 E2 | F2 D2 C4- | C4 z2 F2 | %43
w: * ten Chri-|sten,|ent- flie- *|* hen|Teu- * *|* * * * fels|Li- * sten,|_ mit|
w: ||||||||
 F2 F2 F2 D2 | C2 B,2 C4- | C2 B,A, A,4 | z2 A,2 D4 | C4 E4 | F4 D4 | C4 z4 | E4 F4 | C4 D4- | %52
w: Waf- fen Gotts uns|fri- * *|* * * sten.|A- men,|a- men,|dasz sei|wahr,|so sin-|gen wir|
w: |||||||||
 D2 B,2 C2 C2 | C8 :| %54
w: _ Hal- le- lu-|ia.|
w: ||
V:3
 z8 | z8 | z8 | c4 c4 | d4 e4 | f4 f4 | e8 | z4 c4 | f4 c4 | A4 B4 | A2 GF G4 | F8 :: F4 G4 | %13
w: |||Gott der|Va- ter|wohn uns|bei,|und|lasz uns|nicht ver-|der- * * *|ben.|Vor dem|
w: |||Mach uns|al- ler|Sün- den-|frei,|und|hilf uns|se- lig|ster- * * *|ben.||
 A4 A4 | F4 G4 | A4 z2 f2 | e4 f4 | g6 f2 | e2 dc d4 | c8 | z4 F4 | c4 f4 | e4 c4 | d3 c B4 | %24
w: Teu- fel|uns be-|wahr, halt|uns bei|fe- stem|Glau- * * *|ben,|und|auf dich|lasz uns|bau- * *|
w: |||||||||||
 A4 z2 A2 | A4 A4 | c6 B2 | A4 G4 | F8 | F4 G4 | A4 A4 | F4 G4 | A4 z2 f2 | e4 f4 | g6 f2 | %35
w: en, aus|Her- zen|Grund ver-|trau- *|en,|dir uns|las- sen|ganz und|gar, mit|al- len|rech- ten|
w: |||||||||||
 e2 dc d4 | c8 | z4 F4 | c4 f4 | e4 c4 | d3 c B4 | A4 z2 A2 | A4 A4 | c6 B2 | A2 GF G4 | F4 z4 | %46
w: Chri- * * *|sten,|ent-|flie- hen|Teu- fels|Li- * *|sten, mit|Waf- fen|Gotts und|fri- * * *|sten.|
w: |||||||||||
 F4 G4 | A4 A4 | F4 G4 | A4 z2 A2 | c6 B2 | A4 B4 | A2 GF G4 | F8 :| %54
w: A- men,|a- men,|dasz sei|wahr, so|sin- gen|wir Hal-|le- * * lu-|ia.|
w: ||||||||
V:4
 z8 | z8 | z8 | z8 | G,4 G,4 | A,4 B,4 | C4 C4 | B,4 z2 A,2 | F,2 D,2 A,3 B, | C2 F,4 E,2 | %10
w: ||||Gott Va-|ter uns|wohn uns|bei, und|lasz uns nicht _|_ ver- der-|
w: ||||Mach uns|al- ler|Sün- den-|frei, und|lasz uns se- *|* lig ster-|
 F,2 D,2 C,4 | F,8 :: z2 D,2 E,4 |"^-natural" D,4 A,,4 | D,4 E,4 | D,4 z2 D2- | D2 C2 D4 | %17
w: |ben.|Vor dem|Teu- fel|uns be-|wahr, halt|_ uns bei|
w: |ben.||||||
 C4 A,2 B,2 | C2 A,2 G,4 | z2 C,2 F,4- | F,2 E,2 D,4 | C,2 C2 A,2 F,2 | C3 B, A,4 | G,2 D,2 G,4 | %24
w: fe- * stem|Glau- * ben,|und auf|_ _ dich|lasz uns bau- *|||
w: |||||||
 F,8 | z2 F,2 F,4 | F,4 F,2 G,2 | C4 B,4 | z2 C2 A,2 F,G, | A,B, C4 B,2 | C4 F,3 G, | A,B, C4 B,2 | %32
w: en,|aus Her-|zen Grund ver-|trau- en,|dir uns las- *||sen ganz _|_ _ _ und|
w: ||||||||
 C4 z2 F,2 | C2 C2 B,2 A,2 | G,6 B,2 | C2 A,2 G,4 | z2 C,2 F,4- | F,2 E,2 D,4 | C,2 C2 A,2 F,2 | %39
w: gar, mit|al- len rech- ten|Chri- *|* * sten,|ent- flie-|* hen Teu-|fels Li- * *|
w: |||||||
 C3 B, A,4 | G,2 D,2 G,4 | F,8 | z2 F,2 F,4 | F,4 F,2 G,2 | C,2 D,2 C,4 | F,4 z4 | D,4 B,,4 | %47
w: ||sten,|mit Waf-|fen Gotts und|fri- * *|sten.|A- men,|
w: ||||||||
 A,,4 A,,4 | D,4 B,,4 | A,,8 | z2 C,2 F,4- | F,2 E,2 D,2 B,,2 | D,4 C,4 | F,8 :| %54
w: a- men,|dasz sei|wahr,|so sin-|* gen wir Hal-|le- lu-|ia.|
w: |||||||

